src/svg/16/market_16.svg

<svg width="16" height="16" viewBox="0 0 16 16" fill="none" xmlns="http://www.w3.org/2000/svg">
<path d="M8 0C10.2091 0 12 1.79086 12 4H13.3976C13.9548 4 14.1568 4.05802 14.3605 4.16696C14.5642 4.2759 14.7241 4.43577 14.833 4.63947C14.942 4.84318 15 5.04523 15 5.60243V10.8337C15 12.2824 14.8492 12.8077 14.5659 13.3374C14.2827 13.867 13.867 14.2827 13.3374 14.5659C12.8077 14.8492 12.2824 15 10.8337 15H5.16631C3.7176 15 3.19226 14.8492 2.66263 14.5659C2.133 14.2827 1.71734 13.867 1.43409 13.3374C1.15084 12.8077 1 12.2824 1 10.8337V5.60243C1 5.04523 1.05802 4.84318 1.16696 4.63947C1.2759 4.43577 1.43577 4.2759 1.63947 4.16696C1.84318 4.05802 2.04523 4 2.60243 4H4C4 1.79086 5.79086 0 8 0ZM4.77147 5.5H4.72853C4.56447 5.5 4.43845 5.53017 4.33253 5.58682C4.2266 5.64347 4.14347 5.7266 4.08682 5.83253C4.03017 5.93845 4 6.06447 4 6.22853V6.27147C4 6.43553 4.03017 6.56155 4.08682 6.66747C4.14347 6.7734 4.2266 6.85653 4.33253 6.91318C4.43845 6.96983 4.56447 7 4.72853 7H4.77147C4.93553 7 5.06155 6.96983 5.16747 6.91318C5.2734 6.85653 5.35653 6.7734 5.41318 6.66747C5.46983 6.56155 5.5 6.43553 5.5 6.27147V6.22853C5.5 6.06447 5.46983 5.93845 5.41318 5.83253C5.35653 5.7266 5.2734 5.64347 5.16747 5.58682C5.06155 5.53017 4.93553 5.5 4.77147 5.5ZM11.2715 5.5H11.2285C11.0645 5.5 10.9385 5.53017 10.8325 5.58682C10.7266 5.64347 10.6435 5.7266 10.5868 5.83253C10.5302 5.93845 10.5 6.06447 10.5 6.22853V6.27147C10.5 6.43553 10.5302 6.56155 10.5868 6.66747C10.6435 6.7734 10.7266 6.85653 10.8325 6.91318C10.9385 6.96983 11.0645 7 11.2285 7H11.2715C11.4355 7 11.5615 6.96983 11.6675 6.91318C11.7734 6.85653 11.8565 6.7734 11.9132 6.66747C11.9698 6.56155 12 6.43553 12 6.27147V6.22853C12 6.06447 11.9698 5.93845 11.9132 5.83253C11.8565 5.7266 11.7734 5.64347 11.6675 5.58682C11.5615 5.53017 11.4355 5.5 11.2715 5.5ZM8 1.5C6.61929 1.5 5.5 2.61929 5.5 4H10.5C10.5 2.61929 9.38071 1.5 8 1.5Z" fill="currentColor"/>
</svg>

<svg width="16" height="16" fill="none" xmlns="http://www.w3.org/2000/svg"><path d="M8 0a4 4 0 014 4h1.398c.557 0 .759.058.963.167.203.109.363.269.472.472.109.204.167.406.167.963v5.232c0 1.448-.15 1.974-.434 2.503-.283.53-.699.946-1.229 1.229-.53.283-1.055.434-2.503.434H5.166c-1.448 0-1.974-.15-2.503-.434a2.953 2.953 0 01-1.229-1.229C1.151 12.807 1 12.282 1 10.834V5.602c0-.557.058-.759.167-.963.109-.203.269-.363.472-.472.204-.109.406-.167.963-.167H4a4 4 0 014-4zM4.771 5.5H4.73c-.165 0-.29.03-.396.087a.59.59 0 00-.246.246.816.816 0 00-.087.396v.042c0 .165.03.29.087.396a.59.59 0 00.246.246.816.816 0 00.396.087h.042c.165 0 .29-.03.396-.087a.59.59 0 00.246-.246.816.816 0 00.087-.396V6.23c0-.165-.03-.29-.087-.396a.59.59 0 00-.246-.246.816.816 0 00-.396-.087zm6.5 0h-.043c-.163 0-.29.03-.396.087a.591.591 0 00-.245.246.816.816 0 00-.087.396v.042c0 .165.03.29.087.396.056.106.14.19.245.246a.816.816 0 00.396.087h.043c.164 0 .29-.03.396-.087a.591.591 0 00.246-.246.816.816 0 00.087-.396V6.23c0-.165-.03-.29-.087-.396a.591.591 0 00-.245-.246.816.816 0 00-.396-.087zM8 1.5A2.5 2.5 0 005.5 4h5A2.5 2.5 0 008 1.5z" fill="currentColor"/></svg>
